X: 755
T: Air Moving
R: waltz
M: 3/4
K: Gmajor
f|:g3f e2|d3c B2|d3c Bc|A6|
A4 f2|g3f e2|d3c B2|d6|d4 f2|
g3f e2|d3c B2|d3c Bc|A6|
A4 (#dcA|B3f G2|F3e d2|A6|1 A4 f2|2 A4 B2||
|:c4 G2|c4 d2|B3A G2|F2 G2 B2|
c4 G2|c4 B2|B3A GB|A4 B2:|
G2 B2 f2|g3f e2|d3c Bc|A6|A4 f2||

